X:1
T:Willie drowned in Ero.
B:The Penguin Book of Canadian Folk Songs.
S:
M:6/4
L:1/4
K:E
B,|E F G (F E) C|C1/2 E3/2 E B,2 G|
w:My Wil-lie is brave, *my Wil-lie is tall, My
A1/2 B3/2 c B G E|F E2 z2 B,|(E F) G (F E) E|
w:Wil-lie is one that is bon-ny. He pro-*mised that *he'd
(C E) E B,2 G|B1/2 B3/2 c (B G) G| F1/2 E3/2 z z2 E|
w:mar-*ry me If e-ver he'd mar-ry *a-ny, If 
F1/2 F3/2  F F2 E|G1/2 B3/2 z z2 B,|(E F) G (F E) E|
w:e-ver he'd mar-ry a-ny. He pro-*mised that *he'd
(C E) E B,2 G|A1/2 B3/2 c (B G) F|F1/2 E3/2 z z2||
w:mar-*ry me If e-ver he'd mar-*ry a-ny.  